lib/healthicons/icons/outline/people/truck_driver.svg

<svg fill="none" height="48" viewBox="0 0 48 48" width="48" xmlns="http://www.w3.org/2000/svg"><g fill="#333"><path clip-rule="evenodd" d="m19.101 14h9.7979v2h-9.7979zm-2.4747 3.643c.2237-.1427.495-.1907.7541-.1333 1.3059.2893 3.3929.4903 6.6196.4903 3.2266 0 5.3136-.201 6.6195-.4903.2591-.0574.5304-.0094.7542.1333.2237.1428.3815.3686.4387.6278.1229.5577.1876 1.1365.1876 1.7292 0 4.4183-3.5818 8-8 8-4.4183 0-8-3.5817-8-8 0-.5927.0646-1.1715.1876-1.7292.0571-.2592.2149-.485.4387-.6278zm1.3833 2.0135c-.0064.1136-.0096.2281-.0096.3435 0 3.3137 2.6863 6 6 6s6-2.6863 6-6c0-.1154-.0033-.2299-.0097-.3435-1.4519.2179-3.4019.3435-5.9903.3435-2.5885 0-4.5385-.1256-5.9904-.3435z" fill-rule="evenodd"/><path clip-rule="evenodd" d="m17.0018 10.3184c.0155 1.3476.1274 2.4374.2378 3.1995.026.1792.0519.3402.0763.4821h13.3681c.0245-.1418.0503-.3028.0763-.482.1104-.762.2223-1.8518.2378-3.1996-.0604-.0517-.1402-.115-.2416-.1885-.3606-.26138-.9083-.58974-1.597-.9113-1.3821-.64531-3.2359-1.2186-5.1595-1.2186-1.9237 0-3.7775.57329-5.1596 1.2186-.6887.32156-1.2364.64992-1.597.9113-.1013.0735-.1811.1368-.2416.1885zm14.2101 5.6816h-14.4238c-.0012.0008-.0024.0016-.0036.0024-.14.0939-.3205.2245-.4942.376-.1786.1559-.3196.3078-.4069.4395-.0262.0397-.0432.0706-.0541.0934.0113.0104.0257.0228.0439.0372.1491.1173.4714.291 1.0994.4614 1.2523.3396 3.4267.5901 7.0274.5901 3.6006 0 5.775-.2505 7.0273-.5901.628-.1704.9503-.3441 1.0994-.4614.0183-.0144.0326-.0268.0439-.0372-.0109-.0228-.0278-.0537-.0541-.0934-.0872-.1317-.2283-.2836-.4069-.4395-.1736-.1515-.3541-.2821-.4942-.376-.0012-.0008-.0023-.0016-.0035-.0024zm-15.8302-1.4549c-.038-.2053-.0798-.4531-.1214-.7404-.131-.9046-.2603-2.2028-.2603-3.8047 0-.31368.1339-.54796.1963-.64747.0779-.12421.1703-.23146.253-.31763.1678-.17468.3833-.35242.6203-.52422.4799-.34795 1.1409-.73834 1.9247-1.10428 1.5628-.72969 3.7091-1.4064 6.0057-1.4064 2.2965 0 4.4428.67671 6.0056 1.4064.7838.36594 1.4448.75633 1.9248 1.10428.237.1718.4525.34954.6202.52422.0827.08617.1751.19342.253.31763.0624.09951.1964.33379.1964.64747 0 1.6021-.1293 2.9003-.2604 3.8048-.0416.2873-.0834.535-.1214.7404.1277.0947.2667.2043.4065.3264.2511.2191.5358.5047.7591.8417.2187.3301.4362.7976.4017 1.3491-.0371.5933-.3516 1.0877-.822 1.4578-.4467.3515-1.0579.6153-1.8127.8199-1.5134.4104-3.9015.6599-7.5508.6599-3.6494 0-6.0375-.2495-7.5508-.6599-.7548-.2046-1.3661-.4684-1.8127-.8199-.4705-.3701-.785-.8645-.8221-1.4578-.0345-.5515.1831-1.019.4017-1.3491.2233-.337.508-.6226.7591-.8417.1399-.1221.2788-.2317.4065-.3265z" fill-rule="evenodd"/><path d="m21 11c0-.5523.4477-1 1-1h4c.5522 0 1 .4477 1 1s-.4478 1-1 1h-4c-.5523 0-1-.4477-1-1z"/><g clip-rule="evenodd" fill-rule="evenodd"><path d="m23 36.5v-4.5h2v4.5z"/><path d="m32.6933 38.6706-6.4345 1.7242-.5177-1.9319 6.4346-1.7241z"/><path d="m21.7411 40.3948-6.4345-1.7242.5177-1.9318 6.4345 1.7241z"/><path d="m31.6117 36.7444c-.4289-1.6004.5209-3.2454 2.1213-3.6743l1.9318-.5176c1.6004-.4288 3.2455.5209 3.6743 2.1213l.7764 2.8978c.4289 1.6004-.5209 3.2454-2.1213 3.6742l-1.9318.5177c-1.6004.4288-3.2454-.5209-3.6743-2.1213zm2.6389-1.7424c-.5334.1429-.85.6913-.7071 1.2247l.7765 2.8978c.1429.5335.6913.8501 1.2247.7071l1.9319-.5176c.5334-.143.85-.6913.7071-1.2248l-.7765-2.8977c-.1429-.5335-.6912-.8501-1.2247-.7071z"/><path d="m8.6564 34.673c.42883-1.6004 2.0738-2.5501 3.6742-2.1213l1.9319.5177c1.6004.4288 2.5501 2.0738 2.1213 3.6742l-.7764 2.8978c-.4289 1.6004-2.0739 2.5501-3.6743 2.1213l-1.9318-.5177c-1.60043-.4288-2.55018-2.0738-2.12136-3.6742zm3.1566-.1894c-.5335-.143-1.0818.1736-1.2247.7071l-.7765 2.8977c-.14295.5335.17364 1.0819.7071 1.2248l1.9319.5176c.5334.143 1.0818-.1736 1.2247-.7071l.7765-2.8978c.1429-.5334-.1737-1.0818-.7072-1.2247z"/><path d="m24 40c.5522 0 1-.4477 1-1s-.4478-1-1-1c-.5523 0-1 .4477-1 1s.4477 1 1 1zm0 2c1.6568 0 3-1.3431 3-3s-1.3432-3-3-3c-1.6569 0-3 1.3431-3 3s1.3431 3 3 3z"/><path d="m24 32c-4.4183 0-8 3.5817-8 8v1c0 .5523-.4477 1-1 1s-1-.4477-1-1v-1c0-5.5228 4.4771-10 10-10 5.5228 0 10 4.4772 10 10v1c0 .5523-.4478 1-1 1-.5523 0-1-.4477-1-1v-1c0-4.4183-3.5818-8-8-8z"/></g></g></svg>

<svg width="48" height="48" viewBox="0 0 48 48" fill="none" xmlns="http://www.w3.org/2000/svg">
<path d="M21.0001 11C21.0001 10.4477 21.4478 10 22.0001 10H26.0001C26.5524 10 27.0001 10.4477 27.0001 11C27.0001 11.5523 26.5524 12 26.0001 12H22.0001C21.4478 12 21.0001 11.5523 21.0001 11Z" fill="#333333"/>
<path fill-rule="evenodd" clip-rule="evenodd" d="M33.3636 18.5202C33.0011 18.8055 32.5303 19.0329 31.9623 19.2179C31.9873 19.4754 32.0001 19.7363 32.0001 20C32.0001 24.4183 28.4184 28 24.0001 28C19.5818 28 16.0001 24.4183 16.0001 20C16.0001 19.7363 16.0129 19.4754 16.0379 19.2179C15.4699 19.0329 14.999 18.8055 14.6366 18.5202C14.1661 18.1501 13.8516 17.6557 13.8145 17.0624C13.7801 16.5109 13.9976 16.0434 14.2162 15.7133C14.4395 15.3763 14.7243 15.0907 14.9754 14.8716C15.1152 14.7495 15.2542 14.6399 15.3818 14.5451C15.3439 14.3398 15.302 14.092 15.2604 13.8047C15.1294 12.9001 15.0001 11.6019 15.0001 10C15.0001 9.68632 15.134 9.45204 15.1964 9.35253C15.2744 9.22832 15.3667 9.12107 15.4495 9.0349C15.6172 8.86022 15.8327 8.68248 16.0697 8.51068C16.5497 8.16273 17.2107 7.77234 17.9944 7.4064C19.5573 6.67671 21.7035 6 24.0001 6C26.2967 6 28.4429 6.67671 30.0057 7.4064C30.7895 7.77234 31.4505 8.16273 31.9305 8.51068C32.1675 8.68248 32.383 8.86022 32.5507 9.0349C32.6335 9.12107 32.7258 9.22832 32.8037 9.35253C32.8662 9.45204 33.0001 9.68632 33.0001 10C33.0001 11.6021 32.8708 12.9003 32.7398 13.8048C32.6981 14.0921 32.6563 14.3398 32.6184 14.5452C32.746 14.6399 32.885 14.7495 33.0248 14.8716C33.2759 15.0907 33.5606 15.3763 33.7839 15.7133C34.0026 16.0434 34.2201 16.5109 34.1856 17.0624C34.1486 17.6557 33.834 18.1501 33.3636 18.5202ZM17.0019 10.3184C17.0175 11.666 17.1294 12.7558 17.2398 13.5179C17.2657 13.6971 17.2916 13.8581 17.3161 14H30.6841C30.7086 13.8582 30.7345 13.6972 30.7604 13.518C30.8708 12.756 30.9827 11.6662 30.9983 10.3184C30.9378 10.2667 30.858 10.2034 30.7566 10.1299C30.396 9.86852 29.8483 9.54016 29.1596 9.2186C27.7775 8.57329 25.9238 8 24.0001 8C22.0764 8 20.2227 8.57329 18.8406 9.2186C18.1519 9.54016 17.6042 9.86852 17.2436 10.1299C17.1422 10.2034 17.0624 10.2667 17.0019 10.3184ZM16.7882 16L16.7846 16.0024C16.6446 16.0963 16.4641 16.2269 16.2904 16.3784C16.1119 16.5343 15.9708 16.6862 15.8835 16.8179C15.8573 16.8576 15.8403 16.8885 15.8295 16.9113C15.8407 16.9217 15.8551 16.9341 15.8734 16.9485C16.0224 17.0658 16.3447 17.2395 16.9728 17.4099C17.0966 17.4435 17.2296 17.4762 17.372 17.5079L17.3805 17.5097C17.8827 17.621 18.5004 17.7192 19.2541 17.7979C20.3214 17.9093 21.6641 17.9821 23.3416 17.9971C23.5556 17.999 23.7751 18 24.0001 18C27.2267 18 29.3138 17.799 30.6196 17.5097L30.6282 17.5079C30.7706 17.4762 30.9035 17.4435 31.0274 17.4099C31.6554 17.2395 31.9778 17.0658 32.1268 16.9485C32.1451 16.9341 32.1595 16.9217 32.1707 16.9113C32.1598 16.8885 32.1429 16.8576 32.1166 16.8179C32.0294 16.6862 31.8883 16.5343 31.7097 16.3784C31.5361 16.2269 31.3556 16.0963 31.2156 16.0024L31.212 16H16.7882ZM23.7275 20C26.3703 20 28.4172 19.8602 29.9879 19.6157C29.9959 19.7427 30 19.8708 30 20C30 23.3137 27.3137 26 24 26C20.6863 26 18 23.3137 18 20C18 19.8942 18.0027 19.7891 18.0081 19.6847C19.4706 19.8865 21.3459 20 23.7275 20Z" fill="#333333"/>
<path fill-rule="evenodd" clip-rule="evenodd" d="M16.0782 38.8774C16.0267 39.2442 16.0001 39.619 16.0001 40V41C16.0001 41.5523 15.5524 42 15.0001 42C14.6316 42 14.3097 41.8007 14.1362 41.504C13.4855 41.8559 12.7042 41.9693 11.9332 41.7627L10.0014 41.245C8.40099 40.8162 7.45124 39.1712 7.88007 37.5708L8.65652 34.673C9.08535 33.0726 10.7304 32.1229 12.3308 32.5517L14.2626 33.0694C14.935 33.2495 15.4926 33.6444 15.8813 34.1605C17.697 31.6405 20.657 30 24.0001 30C27.3421 30 30.3011 31.6394 32.117 34.1579C32.5056 33.6435 33.0622 33.2499 33.7331 33.0701L35.665 32.5525C37.2654 32.1237 38.9104 33.0734 39.3392 34.6738L40.1157 37.5716C40.5445 39.172 39.5947 40.817 37.9943 41.2458L36.0625 41.7635C35.2927 41.9697 34.5126 41.8571 33.8625 41.5065C33.6887 41.8018 33.3676 42 33.0001 42C32.4478 42 32.0001 41.5523 32.0001 41V40C32.0001 39.619 31.9734 39.2442 31.9219 38.8774L26.718 40.2718C26.2394 41.2928 25.2023 42 24.0001 42C22.7979 42 21.7608 41.2928 21.2822 40.2717L16.0782 38.8774ZM21.1199 38.1577C21.3904 37.2313 22.0957 36.4903 23.0001 36.1707V32.0619C20.0995 32.4236 17.6811 34.3382 16.6031 36.9474L21.1199 38.1577ZM31.3971 36.9474C30.3191 34.3382 27.9007 32.4236 25.0001 32.0619V36.1707C25.9044 36.4903 26.6098 37.2313 26.8802 38.1577L31.3971 36.9474ZM33.5436 36.2267C33.4007 35.6933 33.7173 35.1449 34.2508 35.002L36.1826 34.4844C36.7161 34.3414 37.2644 34.658 37.4074 35.1915L38.1838 38.0892C38.3268 38.6227 38.0102 39.171 37.4767 39.314L35.5449 39.8316C35.0114 39.9746 34.463 39.658 34.3201 39.1245L33.5436 36.2267ZM11.8131 34.4836C11.2797 34.3406 10.7313 34.6572 10.5884 35.1907L9.81192 38.0884C9.66898 38.6219 9.98556 39.1703 10.519 39.3132L12.4509 39.8308C12.9843 39.9738 13.5327 39.6572 13.6756 39.1237L14.4521 36.2259C14.595 35.6925 14.2784 35.1441 13.745 35.0012L11.8131 34.4836ZM25.0001 39C25.0001 39.5523 24.5524 40 24.0001 40C23.4478 40 23.0001 39.5523 23.0001 39C23.0001 38.4477 23.4478 38 24.0001 38C24.5524 38 25.0001 38.4477 25.0001 39Z" fill="#333333"/>
</svg>
